svg/furkot/freepik/church.svg

<svg viewBox="0 0 512 512" xmlns="http://www.w3.org/2000/svg"><path d="m176.028 313.489v10.462h66.849v-10.462c0-29.963-11.887-58.702-33.013-79.95l-.345-.334-.434.334c-21.092 21.248-33.057 49.987-33.057 79.95z"/><path d="m486.122 394.04-138.352-56.009v-16.15l7.914 8.648c6.089 6.567 16.284 6.946 22.862.857l18.043-16.784c6.566-6.089 6.9-16.362.801-22.94l-168.904-182.361v-40.392h12.777c7.257 0 13.958-5.788 13.958-13.023v-10.318c0-7.257-6.701-12.644-13.958-12.644h-12.777v-20.024c0-7.257-6.801-12.9-14.058-12.9h-10.329c-7.246 0-12.644 5.643-12.644 12.9v20.013h-14.181c-7.268 0-12.544 5.387-12.544 12.644v10.318c0 7.257 5.287 13.022 12.544 13.022h14.181v40.014l-169.817 182.773c-6.1 6.567-5.721 16.841.845 22.929l18.076 16.796c6.556 6.088 16.651 5.71 22.729-.857l7.858-8.66v173.245c0 10.496 8.893 19.067 19.411 19.067h388.964c9.361 0 17.386-7.903 17.386-17.263v-87.219c-.011-6.889-4.419-13.089-10.785-15.682zm-176.395 82.109h-52.436v-57.634c0-26.022-21.27-47.259-47.293-47.259h-.946c-26.023 0-47.394 21.237-47.394 47.259v57.634h-52.446v-195.261l100.274-107.632 100.263 107.632v195.261zm153.243 4.118h-113.129v-104.904l113.129 45.757z"/></svg>

<svg xmlns="http://www.w3.org/2000/svg" viewBox="0 0 512 512"><path d="M176.028 313.489V323.951H242.877V313.489C242.877 283.526 230.99 254.787 209.864 233.539L209.519 233.205 209.085 233.539C187.993 254.787 176.028 283.526 176.028 313.489Z"/><path d="M486.122 394.04L347.77 338.031V321.881L355.684 330.529C361.773 337.096 371.968 337.475 378.546 331.386L396.589 314.602C403.155 308.513 403.489 298.24 397.39 291.662L228.486 109.301V68.909H241.263C248.52 68.909 255.221 63.121 255.221 55.886V45.568C255.221 38.311 248.52 32.924 241.263 32.924H228.486V12.9C228.486 5.643 221.685 0 214.428 0H204.099C196.853 0 191.455 5.643 191.455 12.9V32.913H177.274C170.006 32.913 164.73 38.3 164.73 45.557V55.875C164.73 63.132 170.017 68.897 177.274 68.897H191.455V108.911L21.638 291.684C15.538 298.251 15.917 308.525 22.483 314.613L40.559 331.409C47.115 337.497 57.21 337.119 63.288 330.552L71.146 321.892V495.137C71.146 505.633 80.039 514.204 90.557 514.204H479.521C488.882 514.204 496.907 506.301 496.907 496.941V409.722C496.896 402.833 492.488 396.633 486.122 394.04ZM309.727 476.149H257.291V418.515C257.291 392.493 236.021 371.256 209.998 371.256H209.052C183.029 371.256 161.658 392.493 161.658 418.515V476.149H109.212V280.888L209.486 173.256 309.749 280.888V476.149H309.727ZM462.97 480.267H349.841V375.363L462.97 421.12V480.267Z"/></svg>
